src/status/24/hexchat-indicator.svg

<svg width="24" height="24" viewBox="0 0 6.7733 6.7733" xmlns="http://www.w3.org/2000/svg">
 <path d="m2.409 1.411a0.282 0.282 0 0 0-0.244 0.141l-0.978 1.693a0.282 0.282 0 0 0 0 0.283l0.978 1.693a0.282 0.282 0 0 0 0.244 0.141h1.955a0.282 0.282 0 0 0 0.244-0.14l0.979-1.694a0.282 0.282 0 0 0 0-0.283l-0.979-1.693a0.282 0.282 0 0 0-0.243-0.141h-1.955zm0.162 0.564h1.63l0.109 0.189-0.923 0.923-0.924-0.923 0.108-0.188m-0.328 0.567 0.844 0.844-0.843 0.843-0.487-0.844 0.486-0.843m2.286 1e-3 0.481 0.844-0.481 0.842-0.843-0.843 0.843-0.843m-1.142 1.142 0.924 0.924-0.109 0.188h-1.63l-0.109-0.188 0.924-0.924z" color-rendering="auto" fill="#2e3440" image-rendering="auto" shape-rendering="auto" solid-color="#000000" isolation="auto" mix-blend-mode="normal" white-space="normal"/>
</svg>

<svg xmlns="http://www.w3.org/2000/svg" width="24" viewBox="0 0 6.7733335 6.7733335" height="24">
 <path d="M 2.409 1.411 A 0.282 0.282 0 0 0 2.165 1.552 L 1.187 3.245 a 0.282 0.282 0 0 0 0 0.283 l 0.978 1.693 a 0.282 0.282 0 0 0 0.244 0.141 l 1.955 0 A 0.282 0.282 0 0 0 4.608 5.222 L 5.587 3.528 a 0.282 0.282 0 0 0 0 -0.283 L 4.608 1.552 A 0.282 0.282 0 0 0 4.365 1.411 l -1.955 0 z m 0.162 0.564 1.63 0 L 4.31 2.164 3.387 3.087 2.463 2.164 2.571 1.976 M 2.243 2.543 3.087 3.387 2.244 4.23 1.757 3.386 2.243 2.543 M 4.529 2.544 5.01 3.388 4.529 4.23 3.686 3.387 4.529 2.544 m -1.142 1.142 0.924 0.924 -0.109 0.188 -1.63 0 -0.109 -0.188 0.924 -0.924 z" mix-blend-mode="normal" isolation="auto" white-space="normal" solid-opacity="1" solid-color="#000000" style="visibility:visible;shape-rendering:auto;color-interpolation-filters:linearRGB;fill:#2e3440;opacity:1;image-rendering:auto;fill-opacity:1;stroke:none;display:inline;color:#000;fill-rule:nonzero;color-rendering:auto;color-interpolation:sRGB"/>
</svg>
